; generated by Slic3r Prusa Edition 1.41.3+ on 2019-08-15 at 11:23:38

; 

; external perimeters extrusion width = 0.60mm
; perimeters extrusion width = 0.43mm
; infill extrusion width = 0.45mm
; solid infill extrusion width = 0.70mm
; top infill extrusion width = 0.43mm
; first layer extrusion width = 0.42mm

M73 P0 R105
M201 X9000 Y9000 Z500 E10000 ; sets maximum accelerations, mm/sec^2
M203 X500 Y500 Z12 E120 ; sets maximum feedrates, mm/sec
M204 P2000 R1500 T2000 ; sets acceleration (P, T) and retract acceleration (R), mm/sec^2
M205 X10.00 Y10.00 Z0.20 E2.50 ; sets the jerk limits, mm/sec
M205 S0 T0 ; sets the minimum extruding and travel feed rate, mm/sec
M107
M115 U3.2.3 ; tell printer latest fw version
M83  ; extruder relative mode
M204 S2000 T1500 ; MK2 firmware only supports the old M204 format
M104 S215 ; set extruder temp
M140 S60 ; set bed temp
M190 S60 ; wait for bed temp
M109 S215 ; wait for extruder temp
G28 W ; home all without mesh bed level
G80 ; mesh bed leveling
G1 Y-3.0 F1000.0 ; go outside print area
G92 E0.0
G1 X60.0 E9.0  F1000.0 ; intro line
M73 P0 R105
G1 X100.0 E12.5  F1000.0 ; intro line
G92 E0.0
M900 K30 ; Filament gcode
G21 ; set units to millimeters
G90 ; use absolute coordinates
M83 ; use relative distances for extrusion
;BEFORE_LAYER_CHANGE
G92 E0.0
;0.2


G1 E-0.80000 F2100.00000
G1 Z0.600 F10800.000
;AFTER_LAYER_CHANGE
;0.2
G1 X57.495 Y65.366
G1 Z0.200
G1 E0.80000 F2100.00000
M204 S1000
G1 F1200
G1 X57.964 Y64.678 E0.02608
G1 X58.451 Y64.314 E0.01908
G1 X106.047 Y38.300 E1.70069
G1 X106.537 Y38.111 E0.01646
G1 X107.061 Y38.044 E0.01658
G1 X148.648 Y38.044 E1.30392
G1 X149.396 Y38.178 E0.02383
G1 X179.469 Y49.329 E1.00564
G1 X181.073 Y49.995 E0.05448
G1 X182.649 Y50.817 E0.05570
G1 X184.776 Y52.237 E0.08020
G1 X186.158 Y53.393 E0.05650
G1 X187.428 Y54.667 E0.05639
G1 X189.020 Y56.650 E0.07975
G1 X189.989 Y58.166 E0.05639
G1 X190.819 Y59.766 E0.05652
G1 X191.739 Y62.133 E0.07962
G1 X192.211 Y63.891 E0.05708
G1 X192.602 Y66.422 E0.08032
G1 X192.684 Y68.215 E0.05628
G1 X192.684 Y151.929 E2.62480
G1 X192.509 Y154.573 E0.08306
G1 X192.207 Y156.279 E0.05433
G1 X191.766 Y157.928 E0.05353
G1 X190.799 Y160.426 E0.08398
G1 X189.991 Y161.979 E0.05490
G1 X189.073 Y163.423 E0.05364
G1 X187.397 Y165.517 E0.08409
G1 X186.161 Y166.752 E0.05479
G1 X184.852 Y167.853 E0.05364
G1 X182.627 Y169.344 E0.08398
G1 X181.074 Y170.153 E0.05490
G1 X179.506 Y170.805 E0.05325
G1 X176.902 Y171.567 E0.08505
G1 X175.148 Y171.873 E0.05583
G1 X172.592 Y172.039 E0.08030
G1 X129.816 Y172.019 E1.34122
G1 X127.179 Y171.725 E0.08319
G1 X125.513 Y171.354 E0.05351
G1 X123.884 Y170.842 E0.05353
G1 X121.435 Y169.768 E0.08386
G1 X119.170 Y168.393 E0.08306
G1 X117.790 Y167.334 E0.05456
G1 X116.507 Y166.159 E0.05456
G1 X63.477 Y113.468 E2.34393
G1 X63.089 Y112.636 E0.02878
G1 X57.363 Y86.601 E0.83582
G1 X57.317 Y66.174 E0.64046
G1 X57.482 Y65.424 E0.02409
; PURGING FINISHED
G1 F8640
G1 X57.964 Y64.678 E-0.20500
G1 X58.451 Y64.314 E-0.14048
G1 X60.026 Y63.453 E-0.41452
G1 E-0.04000 F2100.00000
G1 Z0.800 F10800.000
G1 X110.130 Y80.724
G1 Z0.200
G1 E0.80000 F2100.00000
G1 F1200
G1 X110.238 Y80.381 E0.01127
G1 X110.439 Y80.016 E0.01308
G1 X110.667 Y79.742 E0.01118
G1 X110.938 Y79.515 E0.01109
G1 X111.307 Y79.313 E0.01318
G1 X111.650 Y79.205 E0.01127
G1 X112.064 Y79.159 E0.01308
G1 X112.426 Y79.190 E0.01138
G1 X112.836 Y79.309 E0.01339
G1 X113.207 Y79.513 E0.01328
G1 X113.481 Y79.742 E0.01118
G1 X113.708 Y80.012 E0.01109
G1 X113.913 Y80.387 E0.01339
G1 X114.033 Y80.797 E0.01339
G1 X114.064 Y81.155 E0.01128
G1 X114.018 Y81.573 E0.01318
G1 X113.910 Y81.916 E0.01128
G1 X113.708 Y82.285 E0.01318
G1 X113.477 Y82.560 E0.01128
G1 X113.149 Y82.823 E0.01318
G1 X112.836 Y82.986 E0.01107
G1 X112.499 Y83.093 E0.01108
G1 X112.074 Y83.139 E0.01339
G1 X111.650 Y83.093 E0.01339
G1 X111.307 Y82.985 E0.01127
G1 X110.941 Y82.784 E0.01308
G1 X110.663 Y82.551 E0.01138
G1 X110.399 Y82.223 E0.01320
G1 X110.233 Y81.904 E0.01128
G1 X110.116 Y81.500 E0.01318
G1 X110.084 Y81.142 E0.01128
G1 X110.124 Y80.784 E0.01130
G1 X110.498 Y80.825 F10800.000
G1 F1200
G1 X110.587 Y80.530 E0.00965
G1 X110.751 Y80.229 E0.01075
G1 X110.935 Y80.010 E0.00897
G1 X111.152 Y79.828 E0.00888
G1 X111.456 Y79.661 E0.01085
G1 X111.728 Y79.575 E0.00895
G1 X112.069 Y79.538 E0.01075
G1 X112.356 Y79.562 E0.00905
G1 X112.691 Y79.660 E0.01093
G1 X112.994 Y79.826 E0.01083
G1 X113.213 Y80.009 E0.00897
G1 X113.395 Y80.226 E0.00888
G1 X113.563 Y80.532 E0.01093
G1 X113.660 Y80.867 E0.01093
G1 X113.685 Y81.151 E0.00895
G1 X113.648 Y81.495 E0.01085
G1 X113.562 Y81.767 E0.00895
G1 X113.395 Y82.071 E0.01085
G1 X113.212 Y82.289 E0.00895
G1 X112.942 Y82.506 E0.01085
G1 X112.691 Y82.637 E0.00888
G1 X112.421 Y82.722 E0.00888
G1 X112.074 Y82.760 E0.01093
G1 X111.728 Y82.722 E0.01093
G1 X111.456 Y82.636 E0.00895
G1 X111.155 Y82.471 E0.01075
G1 X110.934 Y82.286 E0.00905
G1 X110.717 Y82.016 E0.01086
G1 X110.585 Y81.763 E0.00895
G1 X110.488 Y81.431 E0.01085
G1 X110.463 Y81.146 E0.00895
G1 X110.492 Y80.885 E0.00826
G1 X110.268 Y80.621 F10800.000
G1 F8640
G1 X110.587 Y80.530 E-0.08473
G1 X110.751 Y80.229 E-0.07920
G1 X110.935 Y80.010 E-0.06609
G1 X111.152 Y79.828 E-0.06540
G1 X111.456 Y79.661 E-0.07994
G1 X111.728 Y79.575 E-0.06588
G1 X112.069 Y79.538 E-0.07920
G1 X112.356 Y79.562 E-0.06662
G1 X112.691 Y79.660 E-0.08048
G1 X112.994 Y79.826 E-0.07974
G1 X113.036 Y79.861 E-0.01272
G1 E-0.04000 F2100.00000
G1 Z0.800 F10800.000
G1 X111.650 Y73.177
G1 Z0.200
G1 E0.80000 F2100.00000
G1 F1200
G1 X111.307 Y73.069 E0.01128
G1 X110.938 Y72.867 E0.01318
G1 X110.663 Y72.635 E0.01128
G1 X110.399 Y72.307 E0.01318
G1 X110.233 Y71.988 E0.01128
G1 X110.116 Y71.585 E0.01318
G1 X110.084 Y71.226 E0.01128
G1 X110.130 Y70.808 E0.01318
G1 X110.236 Y70.472 E0.01107
G1 X110.399 Y70.158 E0.01107
G1 X110.667 Y69.826 E0.01338
G1 X110.997 Y69.560 E0.01328
G1 X111.313 Y69.395 E0.01118
G1 X111.650 Y69.289 E0.01108
G1 X112.064 Y69.243 E0.01308
G1 X112.426 Y69.274 E0.01138
G1 X112.836 Y69.394 E0.01340
G1 X113.210 Y69.599 E0.01339
G1 X113.486 Y69.830 E0.01128
G1 X113.749 Y70.158 E0.01318
G1 X113.915 Y70.477 E0.01128
G1 X114.033 Y70.881 E0.01318
G1 X114.064 Y71.239 E0.01128
G1 X114.018 Y71.657 E0.01318
G1 X113.910 Y72.000 E0.01128
G1 X113.708 Y72.369 E0.01318
G1 X113.481 Y72.640 E0.01107
G1 X113.210 Y72.867 E0.01108
G1 X112.842 Y73.069 E0.01318
G1 X112.499 Y73.177 E0.01128
G1 X112.074 Y73.223 E0.01339
G1 X111.710 Y73.184 E0.01151
G1 X112.074 Y72.844 F10800.000
G1 F1200
G1 X111.728 Y72.806 E0.01093
G1 X111.456 Y72.720 E0.00895
G1 X111.152 Y72.554 E0.01085
G1 X110.934 Y72.370 E0.00895
G1 X110.717 Y72.100 E0.01085
G1 X110.585 Y71.847 E0.00895
G1 X110.488 Y71.515 E0.01085
G1 X110.463 Y71.231 E0.00895
G1 X110.501 Y70.886 E0.01085
G1 X110.586 Y70.616 E0.00888
G1 X110.717 Y70.365 E0.00888
G1 X110.935 Y70.094 E0.01092
G1 X111.204 Y69.877 E0.01083
G1 X111.458 Y69.745 E0.00897
G1 X111.728 Y69.660 E0.00888
G1 X112.069 Y69.622 E0.01075
G1 X112.356 Y69.647 E0.00905
G1 X112.691 Y69.744 E0.01093
G1 X112.996 Y69.912 E0.01093
G1 X113.215 Y70.095 E0.00895
G1 X113.432 Y70.365 E0.01085
G1 X113.564 Y70.618 E0.00895
G1 X113.660 Y70.951 E0.01085
G1 X113.685 Y71.235 E0.00895
G1 X113.648 Y71.579 E0.01085
G1 X113.562 Y71.852 E0.00895
G1 X113.395 Y72.155 E0.01085
G1 X113.213 Y72.372 E0.00888
G1 X112.996 Y72.554 E0.00888
G1 X112.693 Y72.720 E0.01085
G1 X112.421 Y72.806 E0.00895
G1 X112.134 Y72.838 E0.00905
G1 X111.898 Y73.145 F10800.000
G1 F8640
G1 X111.728 Y72.806 E-0.09405
G1 X111.456 Y72.720 E-0.06590
G1 X111.152 Y72.554 E-0.07994
G1 X110.934 Y72.370 E-0.06590
G1 X110.717 Y72.100 E-0.07994
G1 X110.585 Y71.847 E-0.06590
G1 X110.488 Y71.515 E-0.07994
G1 X110.463 Y71.231 E-0.06590
G1 X110.501 Y70.886 E-0.07994
G1 X110.586 Y70.616 E-0.06537
G1 X110.621 Y70.550 E-0.01724
G1 E-0.04000 F2100.00000
G1 Z0.800 F10800.000
G1 X120.441 Y80.012
G1 Z0.200
G1 E0.80000 F2100.00000
G1 F1200
G1 X120.672 Y79.737 E0.01128
G1 X121.000 Y79.474 E0.01318
G1 X121.313 Y79.311 E0.01107
G1 X121.650 Y79.205 E0.01107
G1 X122.064 Y79.159 E0.01308
G1 X122.426 Y79.190 E0.01138
G1 X122.836 Y79.310 E0.01340
G1 X123.210 Y79.515 E0.01339
G1 X123.481 Y79.742 E0.01107
G1 X123.708 Y80.012 E0.01107
G1 X123.913 Y80.387 E0.01339
G1 X124.033 Y80.797 E0.01339
G1 X124.064 Y81.155 E0.01128
G1 X124.018 Y81.573 E0.01318
G1 X123.910 Y81.916 E0.01127
G1 X123.710 Y82.282 E0.01308
G1 X123.477 Y82.560 E0.01138
G1 X123.149 Y82.823 E0.01320
G1 X122.836 Y82.986 E0.01107
G1 X122.499 Y83.093 E0.01107
G1 X122.075 Y83.139 E0.01338
G1 X121.654 Y83.093 E0.01328
G1 X121.307 Y82.985 E0.01137
G1 X120.941 Y82.784 E0.01309
G1 X120.663 Y82.551 E0.01138
G1 X120.399 Y82.223 E0.01320
G1 X120.233 Y81.904 E0.01128
G1 X120.116 Y81.500 E0.01318
G1 X120.085 Y81.149 E0.01108
G1 X120.116 Y80.797 E0.01107
G1 X120.235 Y80.387 E0.01339
G1 X120.412 Y80.065 E0.01151
G1 X120.586 Y80.532 F10800.000
G1 F1200
G1 X120.753 Y80.226 E0.01093
G1 X120.937 Y80.008 E0.00895
G1 X121.207 Y79.791 E0.01085
G1 X121.458 Y79.660 E0.00888
G1 X121.728 Y79.575 E0.00887
G1 X122.069 Y79.538 E0.01075
G1 X122.356 Y79.562 E0.00905
G1 X122.691 Y79.660 E0.01093
G1 X122.996 Y79.828 E0.01093
G1 X123.213 Y80.010 E0.00888
G1 X123.395 Y80.226 E0.00888
G1 X123.563 Y80.532 E0.01093
G1 X123.660 Y80.867 E0.01093
G1 X123.685 Y81.151 E0.00895
G1 X123.648 Y81.495 E0.01085
G1 X123.562 Y81.767 E0.00895
G1 X123.397 Y82.068 E0.01075
G1 X123.212 Y82.289 E0.00905
G1 X122.942 Y82.506 E0.01086
G1 X122.691 Y82.637 E0.00888
G1 X122.421 Y82.722 E0.00888
G1 X122.074 Y82.760 E0.01092
G1 X121.731 Y82.723 E0.01083
G1 X121.456 Y82.636 E0.00904
G1 X121.155 Y82.471 E0.01076
G1 X120.934 Y82.286 E0.00905
G1 X120.717 Y82.016 E0.01086
G1 X120.585 Y81.763 E0.00895
G1 X120.488 Y81.431 E0.01085
G1 X120.463 Y81.149 E0.00888
G1 X120.488 Y80.867 E0.00888
G1 X120.569 Y80.590 E0.00905
G1 X120.375 Y80.254 F10800.000
G1 F8640
G1 X120.753 Y80.226 E-0.09404
G1 X120.937 Y80.008 E-0.06590
G1 X121.207 Y79.791 E-0.07994
G1 X121.458 Y79.660 E-0.06537
G1 X121.728 Y79.575 E-0.06534
G1 X122.069 Y79.538 E-0.07920
G1 X122.356 Y79.562 E-0.06662
G1 X122.691 Y79.660 E-0.08050
G1 X122.996 Y79.828 E-0.08047
G1 X123.213 Y80.010 E-0.06537
G1 X123.261 Y80.067 E-0.01724
G1 E-0.04000 F2100.00000
G1 Z0.800 F10800.000
G1 X107.661 Y85.561
G1 Z0.200
G1 E0.80000 F2100.00000
G1 F1200
G1 X107.661 Y66.820 E0.58763
G1 X148.057 Y66.820 E1.26658
G1 X148.057 Y85.561 E0.58763
G1 X107.721 Y85.561 E1.26470
G1 X107.284 Y85.939 F10800.000
G1 F1200
G1 X107.284 Y66.443 E0.61127
G1 X148.434 Y66.443 E1.29023
G1 X148.434 Y85.939 E0.61127
G1 X107.344 Y85.939 E1.28835
G1 X107.431 Y85.567 F10800.000
G1 F8640
G1 X107.334 Y82.647 E-0.76000
G1 E-0.04000 F2100.00000
G1 Z0.800 F10800.000
G1 X108.538 Y85.448
G1 Z0.200
G1 E0.80000 F2100.00000
G1 F1200
G1 X107.944 Y84.855 E0.02638
G1 X107.944 Y84.320 E0.01678
G1 X108.902 Y85.279 E0.04257
G1 X109.437 Y85.279 E0.01678
G1 X107.944 Y83.786 E0.06629
G1 X107.944 Y83.252 E0.01678
G1 X109.971 Y85.279 E0.09002
G1 X110.505 Y85.279 E0.01678
G1 X107.944 Y82.718 E0.11375
G1 X107.944 Y82.184 E0.01678
G1 X111.039 Y85.279 E0.13748
G1 X111.573 Y85.279 E0.01678
G1 X107.944 Y81.649 E0.16120
G1 X107.944 Y81.115 E0.01678
G1 X112.108 Y85.279 E0.18493
G1 X112.642 Y85.279 E0.01678
G1 X107.944 Y80.581 E0.20866
G1 X107.944 Y80.047 E0.01678
G1 X113.346 Y85.448 E0.23992
G1 F8640
G1 X111.018 Y83.121 E-0.76000
G1 E-0.04000 F2100.00000
G1 Z0.800 F10800.000
G1 X111.636 Y83.205
G1 Z0.200
G1 E0.80000 F2100.00000
G1 F1200
G1 X113.710 Y85.279 E0.09211
G1 X114.244 Y85.279 E0.01678
G1 X112.358 Y83.393 E0.08378
G1 X112.557 Y83.371 E0.00629
G1 X112.795 Y83.296 E0.00785
G1 X114.779 Y85.279 E0.08808
G1 X115.313 Y85.279 E0.01678
G1 X113.167 Y83.133 E0.09531
G1 X113.304 Y83.061 E0.00486
G1 X113.485 Y82.916 E0.00727
G1 X115.847 Y85.279 E0.10492
G1 X116.381 Y85.279 E0.01678
G1 X113.762 Y82.660 E0.11632
G1 X113.943 Y82.445 E0.00881
G1 X113.992 Y82.355 E0.00322
G1 X116.915 Y85.279 E0.12985
G1 X117.449 Y85.279 E0.01678
G1 X114.178 Y82.007 E0.14531
G1 X114.300 Y81.595 E0.01349
G1 X117.984 Y85.279 E0.16360
G1 X118.518 Y85.279 E0.01678
G1 X114.344 Y81.105 E0.18541
G1 X114.312 Y80.744 E0.01136
G1 X114.228 Y80.454 E0.00949
G1 X119.222 Y85.448 E0.22183
G1 F8640
G1 X116.894 Y83.121 E-0.76000
G1 E-0.04000 F2100.00000
G1 Z0.800 F10800.000
G1 X120.983 Y82.936
G1 Z0.200
G1 E0.80000 F2100.00000
G1 F1200
G1 X123.325 Y85.279 E0.10406
G1 X123.860 Y85.279 E0.01678
G1 X121.996 Y83.415 E0.08278
G1 X122.075 Y83.424 E0.00248
G1 X122.493 Y83.378 E0.01322
G1 X124.394 Y85.279 E0.08443
G1 X124.928 Y85.279 E0.01678
G1 X122.909 Y83.260 E0.08968
G1 X123.265 Y83.082 E0.01250
G1 X125.462 Y85.279 E0.09759
G1 X125.996 Y85.279 E0.01678
G1 X123.568 Y82.850 E0.10788
G1 X123.676 Y82.763 E0.00436
G1 X123.830 Y82.578 E0.00755
G1 X126.531 Y85.279 E0.11994
G1 X127.065 Y85.279 E0.01678
G1 X124.045 Y82.259 E0.13414
G1 X124.172 Y82.027 E0.00829
G1 X124.214 Y81.894 E0.00440
G1 X127.599 Y85.279 E0.15036
G1 X128.133 Y85.279 E0.01678
G1 X124.315 Y81.461 E0.16959
G1 X124.348 Y81.158 E0.00956
G1 X124.329 Y80.941 E0.00686
G1 X128.837 Y85.448 E0.20022
G1 F8640
G1 X126.510 Y83.121 E-0.76000
G1 E-0.04000 F2100.00000
G1 Z0.800 F10800.000
G1 X122.961 Y85.448
G1 Z0.200
G1 E0.80000 F2100.00000
G1 F1200
G1 X107.944 Y70.432 E0.66701
G1 X107.944 Y70.966 E0.01678
G1 X122.257 Y85.279 E0.63575
G1 X121.723 Y85.279 E0.01678
G1 X107.944 Y71.500 E0.61202
G1 X107.944 Y72.034 E0.01678
G1 X121.189 Y85.279 E0.58829
G1 X120.655 Y85.279 E0.01678
G1 X107.944 Y72.568 E0.56457
G1 X107.944 Y73.102 E0.01678
G1 X120.120 Y85.279 E0.54084
G1 X119.586 Y85.279 E0.01678
G1 X107.944 Y73.637 E0.51711
G1 X107.944 Y74.171 E0.01678
G1 X112.769 Y78.995 E0.21429
G1 X112.478 Y78.911 E0.00951
G1 X112.119 Y78.880 E0.01132
G1 X107.944 Y74.705 E0.18543
M73 P1 R104
G1 X107.944 Y75.239 E0.01678
G1 X111.627 Y78.922 E0.16360
G1 X111.216 Y79.045 E0.01349
G1 X107.944 Y75.773 E0.14531
G1 X107.944 Y76.308 E0.01678
G1 X110.868 Y79.231 E0.12985
G1 X110.778 Y79.280 E0.00322
G1 X110.563 Y79.461 E0.00881
G1 X107.944 Y76.842 E0.11632
G1 X107.944 Y77.376 E0.01678
G1 X110.304 Y79.736 E0.10482
G1 X110.204 Y79.855 E0.00490
G1 X110.093 Y80.059 E0.00727
G1 X107.944 Y77.910 E0.09543
G1 X107.944 Y78.444 E0.01678
G1 X109.927 Y80.427 E0.08808
G1 X109.852 Y80.666 E0.00785
G1 X109.830 Y80.865 E0.00629
G1 X107.944 Y78.979 E0.08378
G1 X107.944 Y79.513 E0.01678
G1 X110.025 Y81.594 E0.09243
G1 F8640
G1 X107.944 Y79.513 E-0.67953
G1 X107.944 Y79.164 E-0.08047
G1 E-0.04000 F2100.00000
G1 Z0.800 F10800.000
G1 X111.461 Y73.414
G1 Z0.200
G1 E0.80000 F2100.00000
G1 F1200
G1 X119.934 Y81.887 E0.37637
G1 X119.836 Y81.553 E0.01094
G1 X119.808 Y81.227 E0.01027
G1 X112.087 Y73.506 E0.34293
G1 X112.567 Y73.452 E0.01516
G1 X119.842 Y80.727 E0.32312
G1 X119.962 Y80.313 E0.01353
G1 X112.970 Y73.321 E0.31057
G1 X113.315 Y73.132 E0.01236
G1 X120.146 Y79.962 E0.30339
G1 X120.206 Y79.852 E0.00394
G1 X120.372 Y79.654 E0.00811
G1 X113.614 Y72.897 E0.30016
G1 X113.869 Y72.617 E0.01188
G1 X120.647 Y79.395 E0.30104
G1 X120.844 Y79.236 E0.00797
G1 X120.961 Y79.175 E0.00413
G1 X114.075 Y72.289 E0.30588
G1 X114.172 Y72.112 E0.00633
G1 X114.234 Y71.914 E0.00653
G1 X121.329 Y79.009 E0.31516
G1 X121.591 Y78.927 E0.00862
G1 X121.762 Y78.908 E0.00540
G1 X114.323 Y71.469 E0.33040
G1 X114.348 Y71.242 E0.00716
G1 X114.321 Y70.933 E0.00977
G1 X122.475 Y79.087 E0.36218
G1 F8640
G1 X120.148 Y76.759 E-0.76000
G1 E-0.04000 F2100.00000
G1 Z0.800 F10800.000
G1 X109.899 Y71.852
G1 Z0.200
G1 E0.80000 F2100.00000
G1 F1200
G1 X107.944 Y69.897 E0.08684
G1 X107.944 Y69.363 E0.01678
G1 X109.801 Y71.220 E0.08246
G1 X109.855 Y70.740 E0.01516
G1 X107.944 Y68.829 E0.08489
G1 X107.944 Y68.295 E0.01678
G1 X109.987 Y70.338 E0.09075
G1 X110.173 Y69.989 E0.01241
G1 X107.944 Y67.761 E0.09898
G1 X107.944 Y67.226 E0.01678
G1 X110.410 Y69.693 E0.10955
G1 X110.465 Y69.624 E0.00275
G1 X110.693 Y69.441 E0.00918
G1 X108.355 Y67.103 E0.10387
G1 X108.889 Y67.103 E0.01678
G1 X111.017 Y69.231 E0.09452
G1 X111.204 Y69.133 E0.00663
G1 X111.393 Y69.073 E0.00624
G1 X109.423 Y67.103 E0.08752
G1 X109.957 Y67.103 E0.01678
G1 X111.838 Y68.984 E0.08354
